X: 015
M: 6/8
L: 1/8
K: G
d2d e2f | g2d gag |\
fgf efe | d3 :|\
|: !+!de!f!f |\
g2d d2c | !+!B2B BcB |
g2d d2c | !+!B3 d2"1."B |\
c2B AGF | G3 :|


